X:853
T:The Maid on the Green
N:"Collected by F.O'Neill"
B:O'Neill's 853
Z:Transcribed by Dan G. Petersen, dangp@post6.tele.dk
M:6/8
L:1/8
K:G
d|gfg e2d|Bee dBA|BGG dGG|BAA ABd|
gfg Te2d|Bee dBA|BGG dBA|BGG G2:|
d|gfg afd|gfg a2f|agfg eag|fdd d2g|
bgb afa|gfg Te2d|Bee dBA|BGG G2:|
